_includes/icons/ios-tv.svg

<svg fill="#666" height="50" viewBox="0 0 50 50" width="50" xmlns="http://www.w3.org/2000/svg"><path d="m0 7v32h50v-32zm2 2h46v28h-46zm8.8125 32c-.550781.050781-.957031.542969-.90625 1.09375s.542969.957031 1.09375.90625h28c.359375.003906.695313-.183594.878906-.496094.179688-.3125.179688-.695312 0-1.007812-.183593-.3125-.519531-.5-.878906-.496094h-28c-.03125 0-.0625 0-.09375 0s-.0625 0-.09375 0z"/></svg>

<svg xmlns="http://www.w3.org/2000/svg" viewBox="0 0 50 50" width="50" height="50" fill="#666"><path d="M 0 7 L 0 39 L 50 39 L 50 7 Z M 2 9 L 48 9 L 48 37 L 2 37 Z M 10.8125 41 C 10.261719 41.050781 9.855469 41.542969 9.90625 42.09375 C 9.957031 42.644531 10.449219 43.050781 11 43 L 39 43 C 39.359375 43.003906 39.695313 42.816406 39.878906 42.503906 C 40.058594 42.191406 40.058594 41.808594 39.878906 41.496094 C 39.695313 41.183594 39.359375 40.996094 39 41 L 11 41 C 10.96875 41 10.9375 41 10.90625 41 C 10.875 41 10.84375 41 10.8125 41 Z"/></svg>
